symbols/web/electric_bike/materialsymbolsoutlined/electric_bike_wght600gradN25_24px.svg

<svg xmlns="http://www.w3.org/2000/svg" height="24" width="24"><path d="M5.25 17q-2.125 0-3.562-1.45Q.25 14.1.25 12q0-2.075 1.475-3.55Q3.2 6.975 5.275 6.975q1.75 0 3.112 1.137Q9.75 9.25 10.1 10.925h.5L8.875 6.15h-1.75V4.025h5.05V6.15H11.1l.325.825h4.4L14.4 3.2h-2.475V1.075h2.525q.675 0 1.212.362.538.363.738.963l1.625 4.55h.75q2.1 0 3.55 1.462 1.45 1.463 1.45 3.538 0 2.1-1.45 3.55-1.45 1.45-3.55 1.45-1.75 0-3.1-1.087-1.35-1.088-1.75-2.813H10.1q-.35 1.7-1.7 2.825Q7.05 17 5.25 17Zm0-2.125q.925 0 1.625-.512.7-.513 1-1.313h-2.7v-2.125H7.9q-.325-.825-1.025-1.312-.7-.488-1.625-.488-1.25 0-2.087.825-.838.825-.838 2.05 0 1.2.838 2.037.837.838 2.087.838Zm7.5-3.95h1.175q.125-.5.325-.975t.525-.85H12.15Zm6.025 3.95q1.25 0 2.088-.838Q21.7 13.2 21.7 12q0-1.225-.825-2.038-.825-.812-1.95-.837h-.1l.925 2.575-1.975.7-.925-2.55q-.475.4-.713.95-.237.55-.237 1.2 0 1.2.825 2.037.825.838 2.05.838Zm-5.725 8.05L6.9 19.85H11V17.8l6.125 3.075H13.05ZM5.125 12Zm13.65.025Z"/></svg>

<svg xmlns="http://www.w3.org/2000/svg" height="24" width="24"><path d="M5.25 17Q3.125 17 1.688 15.55Q0.25 14.1 0.25 12Q0.25 9.925 1.725 8.45Q3.2 6.975 5.275 6.975Q7.025 6.975 8.387 8.112Q9.75 9.25 10.1 10.925H10.6L8.875 6.15H7.125V4.025H12.175V6.15H11.1L11.425 6.975H15.825L14.4 3.2Q14.4 3.2 14.4 3.2Q14.4 3.2 14.4 3.2H11.925V1.075H14.45Q15.125 1.075 15.662 1.437Q16.2 1.8 16.4 2.4L18.025 6.95H18.775Q20.875 6.95 22.325 8.412Q23.775 9.875 23.775 11.95Q23.775 14.05 22.325 15.5Q20.875 16.95 18.775 16.95Q17.025 16.95 15.675 15.863Q14.325 14.775 13.925 13.05H10.1Q9.75 14.75 8.4 15.875Q7.05 17 5.25 17ZM5.25 14.875Q6.175 14.875 6.875 14.363Q7.575 13.85 7.875 13.05H5.175V10.925H7.9Q7.575 10.1 6.875 9.613Q6.175 9.125 5.25 9.125Q4 9.125 3.163 9.95Q2.325 10.775 2.325 12Q2.325 13.2 3.163 14.037Q4 14.875 5.25 14.875ZM12.75 10.925H13.925Q14.05 10.425 14.25 9.95Q14.45 9.475 14.775 9.1H12.15ZM18.775 14.875Q20.025 14.875 20.863 14.037Q21.7 13.2 21.7 12Q21.7 10.775 20.875 9.962Q20.05 9.15 18.925 9.125Q18.9 9.125 18.875 9.125Q18.85 9.125 18.825 9.125L19.75 11.7L17.775 12.4L16.85 9.85Q16.375 10.25 16.137 10.8Q15.9 11.35 15.9 12Q15.9 13.2 16.725 14.037Q17.55 14.875 18.775 14.875ZM13.05 22.925 6.9 19.85H11V17.8L17.125 20.875H13.05ZM5.125 12Q5.125 12 5.125 12Q5.125 12 5.125 12Q5.125 12 5.125 12Q5.125 12 5.125 12Q5.125 12 5.125 12Q5.125 12 5.125 12Q5.125 12 5.125 12Q5.125 12 5.125 12ZM18.775 12.025Q18.775 12.025 18.775 12.025Q18.775 12.025 18.775 12.025Q18.775 12.025 18.775 12.025Q18.775 12.025 18.775 12.025Q18.775 12.025 18.775 12.025Q18.775 12.025 18.775 12.025Q18.775 12.025 18.775 12.025Q18.775 12.025 18.775 12.025Q18.775 12.025 18.775 12.025Q18.775 12.025 18.775 12.025Z"/></svg>
